pictures/header/login.svg

<svg width="16" height="16" viewBox="0 0 16 16" fill="none" xmlns="http://www.w3.org/2000/svg">
<path fill-rule="evenodd" clip-rule="evenodd" d="M9.20837 0.874999C9.20837 0.506809 9.50685 0.208332 9.87504 0.208332H12.875C13.4497 0.208332 14.0008 0.436605 14.4071 0.842934C14.8134 1.24926 15.0417 1.80036 15.0417 2.375V12.875C15.0417 13.4496 14.8134 14.0007 14.4071 14.4071C14.0008 14.8134 13.4497 15.0417 12.875 15.0417H9.87504C9.50685 15.0417 9.20837 14.7432 9.20837 14.375C9.20837 14.0068 9.50685 13.7083 9.87504 13.7083H12.875C13.0961 13.7083 13.308 13.6205 13.4643 13.4643C13.6206 13.308 13.7084 13.096 13.7084 12.875V2.375C13.7084 2.15399 13.6206 1.94202 13.4643 1.78574C13.308 1.62946 13.0961 1.54167 12.875 1.54167H9.87504C9.50685 1.54167 9.20837 1.24319 9.20837 0.874999ZM5.65359 3.40359C5.91394 3.14324 6.33605 3.14324 6.5964 3.40359L10.3418 7.14903C10.4652 7.27002 10.5417 7.43857 10.5417 7.625C10.5417 7.81143 10.4652 7.97999 10.3418 8.10098L6.5964 11.8464C6.33605 12.1068 5.91394 12.1068 5.65359 11.8464C5.39324 11.5861 5.39324 11.1639 5.65359 10.9036L8.26552 8.29167H0.875041C0.506851 8.29167 0.208374 7.99319 0.208374 7.625C0.208374 7.25681 0.506851 6.95833 0.875041 6.95833H8.26552L5.65359 4.3464C5.39324 4.08605 5.39324 3.66394 5.65359 3.40359Z" fill="#2D3440"/>
</svg>

<svg width="16" height="16" fill="none" xmlns="http://www.w3.org/2000/svg"><path fill-rule="evenodd" clip-rule="evenodd" d="M9.2.87c0-.36.3-.66.68-.66h3a2.17 2.17 0 0 1 2.16 2.17v10.5a2.17 2.17 0 0 1-2.16 2.16h-3a.67.67 0 0 1 0-1.33h3a.83.83 0 0 0 .83-.84V2.38a.83.83 0 0 0-.84-.83h-3a.67.67 0 0 1-.66-.67ZM5.66 3.4a.67.67 0 0 1 .95 0l3.74 3.75a.66.66 0 0 1 0 .95L6.6 11.85a.67.67 0 1 1-.95-.95l2.62-2.6H.87a.67.67 0 0 1 0-1.34h7.4L5.65 4.35a.67.67 0 0 1 0-.95Z" fill="#2D3440"/></svg>
